X:1
T:Där borta
T:Ludvig Norman (1831-1885)
T:Text: Ernst Björck
T:Vackra astrar
T:©PA Aglert Edition may be freely distributed, duplicated, performed and recorded
T:©PA Aglert Edition may be freely distributed, duplicated, performed and recorded
T:©PA Aglert Edition may be freely distributed, duplicated, performed and recorded
T:©PA Aglert Edition may be freely distributed, duplicated, performed and recorded
T:©PA Aglert Edition may be freely distributed, duplicated, performed and recorded
T:©PA Aglert Edition may be freely distributed, duplicated, performed and recorded
T:©PA Aglert Edition may be freely distributed, duplicated, performed and recorded
C:Ludvig Norman (1831-1885)
Z:©PA Aglert
Z:Edition may be freely distributed, duplicated, performed and recorded
%%score [ 1 2 3 4 ]
L:1/8
Q:1/4=111
M:4/4
K:D
V:1 treble nm="S"
V:2 treble nm="A"
V:3 treble-8 nm="T"
V:4 bass nm="B"
V:1
"^Avmätt, dock ej långsamt"!p! A2 d2 B2 c2 | !>!e3 c B2 A2 | A2 d2 B2 c2 | ^G3 B A4 | %4
w: Vack- ra ast- rar|pr- pur- rö- da,|vack- ra ast- rar,|dun- kel- blå,|
!mf! A2 d2 B2 c2 | !>!e3 c B2 ^A2 | B2!<(! d2 d3!<)! c | c2!>(! B2!>)! A4 | z2!p! AA AAAA | %9
w: ed- ra kro- nor,|hur de glö- da,|dof- ten sak- na|de än- då.|Och, lik- väl, så snart det|
 A2!<(! _B2 B2!<)! B2 | _B3!>(! B B2 =c2!>)! | A2"^cresc." AA A2 !courtesy!=B2 | %12
w: hän- der, blom- mor,|att jag träf- far|er, är det som då|
!f! !courtesy!^c4 B4 | f2 e2 d2 A2 |!>(! c3 A!>)! B3 ^G |!p! A8- | A8-"^molto cresc." | A8 | %18
w: kä- ra|frän- der i ett|fjär- ran land jag|ser.|_||
!f! A2 f2 d2 e2 | B3 c d2 e2 | A2 B2 d2 c2 |!<(! B3 e!<)! e4 |!f! =f2 (ed) (dc)(de) | %23
w: For- dom jag för|ro- sor brun- nit|i den ung- a|vå- rens dar.|Vå- ren _ läng- * e _|
 A3!<(! =c c2!<)! _B2 | !>!_B4 !>!B4 | (_BA) A6- | A4 !courtesy!=B2 !courtesy!^c2 |!<(! d8!<)! | %28
w: se'n för- svun- nit,|si- sta|ro- * sen|_ viss- nat|har,|
!f! =f4!>(! ^G4!>)! | A4!>(!{/=c} (_B3 A)!>)! |!>(! A6!>)! A2 |!p! !fermata!d8 ||!p! A2 d2 B2 c2 | %33
w: sis- ta|ro- sen _|viss- nat|har.|Ast- rar bä- ren|
 !>!e3 c B2 A2 | A2 d2 B2 c2 | ^G3 B A4 |!mf! A2 d2 B2 c2 | !>!e3 c B2 ^A2 | B2!<(! d2 d3 c!<)! | %39
w: stolt er kro- na!|Här ha mi- na|ro- sor stått,|och att sak- na'ns|kval för- so- na|ni har de- ras|
!>(! c2 B2!>)! A4 | z2!p! AA!<(! AAAA!<)! | A2 _B2 B2 B2 |!>(! _B2 B2 B3!>)! =c | %43
w: plat- ser fått.|Sis- ta lär- kan av- sked|kvitt- rar och mot|sö- dern flyk- tar|
"^cresc." A2 AA A2 !courtesy!=B2 |!f! !courtesy!^c4 B4 | f2 e2 d2 A2 |!>(! c3 A B3!>)! ^G | %47
w: glad, ty hon märkt, att|rim- frost|glitt- rar mel- lan|blom- mans gran- na|
!p! A8- | A8-"^molto cresc." | A8 |!f! A2 f2 d2 e2 | B3 c d2 e2 | A2 B2 d2 c2 | B3!<(! e e4!<)! | %54
w: blad.|_||Mi- na vack- ra.|kal- la min- nen,|här- men ro- sor-|na på nytt.|
!f! =f2 (ed) (dc)(de) |!<(! A3 =c c2!<)! _B2 | z4!f! _B2 B2 | _B6 B2 | _B4 B4 | _B4!f!!<(! A2 A2 | %60
w: Dun- kel- * rö- * da _|kro- nor brin- nen!|vad gör|det, att|dof- ten|flytt, vad gör|
 d6!<)! d2 | d4!<(! [de]4!<)! |!ff! [d!courtesy!^f]8- | !fermata![df]8 |] %64
w: det att|dof- ten|flytt?|_|
V:2
!p! F2 F2 G2 G2 | !>!G3 G G2 G2 | F2 F2 A2 A2 | ^G3 E E4 |!mf! F2 F2 ^G2 A2 | %5
w: Vack- ra ast- rar|pr- pur- rö- da,|vack- ra ast- rar,|dun- kel- blå,|ed- ra kro- nor,|
 !>!!courtesy!=G3 G G2 F2 | F2 =F2 E3 E | E2 D2 C4 | z2!p! EE EE=FG | G2 =F2 E2 F2 | %10
w: hur de glö- da,|dof- ten sak- na|de än- då.|Och, lik- väl, så snart det|hän- der, blom- mor,|
 G2 =F2 E2 (DE) | =F2"^cresc." AA A2 A2 |!f! A4 ^G4 | A2 !courtesy!=G2 F2 =F2 | E2 E2 E2 E2 | %15
w: att jag träf- far _|er, är det som då|kä- ra|frän- der i ett|fjär- ran land jag|
!p! E4 E2 E2 | E3"^molto cresc." F F3 G | G8 |!f! F2 A2 A2 A2 | G3 G G2 G2 | F2 F2 E2 A2 | %21
w: ser, i ett|fjär- ran land jag|ser.|For- dom jag för|ro- sor brun- nit|i den ung- a|
!<(! E3 ^G!<)! (A2 =G2) |!f! =F2 (GA) _B2 (AG) | =F2!<(! E2 _E2!<)! E2 | !>!G4 !>!=F4 | %25
w: vå- rens dar. _|Vå- ren _ läng- e _|se'n för- svun- nit,|si- sta|
 =F4 (E2 F2) | G4 (=F2 E2) | (D2!<(! E2) =F2!<)! G2 |!f! ^G4!>(! D4 | D4!>)! (C2 D2) | %30
w: ro- sen _|viss- nat _|har, _ sis- ta|ro- sen|viss- nat _|
!>(! E4 G4!>)! |!p! (G2 !fermata!!courtesy!^F6) ||!p! F2 F2 G2 G2 | !>!G3 G G2 G2 | F2 F2 A2 A2 | %35
w: viss- nat|har. _|Ast- rar bä- ren|stolt er kro- na!|Här ha mi- na|
 ^G3 E E4 |!mf! F2 F2 ^G2 A2 | !>!!courtesy!=G3 G G2 F2 | F2!<(! =F2 E3 E!<)! |!>(! E2 D2!>)! C4 | %40
w: ro- sor stått,|och att sak- na'ns|kval för- so- na|ni har de- ras|plat- ser fått.|
 z2!p! EE!<(! EE=FG!<)! | G2 =F2 E2 F2 | G2 =F2 E2 (DE) |"^cresc." =F2 AA A2 A2 |!f! A4 ^G4 | %45
w: Sis- ta lär- kan av- sked|kvitt- rar och mot|sö- dern flyk- tar _|glad, ty hon märkt, att|rim- frost|
 A2 !courtesy!=G2 F2 =F2 | E2 E2 E2 E2 |!p! E4 E2 E2 | E3 F F3"^cresc." G | G8 |!f! F2 A2 A2 A2 | %51
w: glitt- rar mel- lan|blom- mans gran- na|blad, mel- lan|blom- mans gran- na|blad.|Mi- na vack- ra.|
 G3 G G2 G2 | F2 F2 E2 A2 | E3!<(! ^G (A2!<)! =G2) |!f! =F2 (GA) _B2 (AG) | =F2 E2 _E2 E2 | %56
w: kal- la min- nen,|här- men ro- sor-|na på nytt. _|Dun- kel- * rö- da _|kro- nor brin- nen!|
!f! G4 =F4 | _E4 D4 | !courtesy!^C4 D4 | G4!<(! G2 G2 | (!courtesy!^F4 G2)!<)! G2 | G4 [Gd]4 | %62
w: vad gör|det, att|dof- ten|flytt, vad gör|det _ att|dof- ten|
!ff! [FA]8- | !fermata![FA]8 |] %64
w: flytt?|_|
V:3
!p! d2 A2 d2 e2 | !>!c3 e d2 c2 | d2 A2 f2 e2 | e3 d c4 |!mf! d2 A2 B2 A2 | !>!A3 ^A B2 c2 | %6
w: Vack- ra ast- rar|pr- pur- rö- da,|vack- ra ast- rar,|dun- kel- blå,|ed- ra kro- nor,|hur de glö- da,|
 B2 A2 A3 A | F2 ^G2 A4 | z2!p! cc ccde | e2 d2 d2 d2 | =c2 G2 G2 (=FG) | A2"^cresc." =c^c d2 ^d2 | %12
w: dof- ten sak- na|de än- då.|Och, lik- väl, så snart det|hän- der, blom- mor,|att jag träf- far _|er, är det som då|
!f! e4 e4 | A2 A2 A2 A2 | A3 c d3 B |!p! c8- | c8-"^molto cresc." | c8 | %18
w: kä- ra|frän- der i ett|fjär- ran land jag|ser.|_||
!f!"^marcato" A2 d2"^cantabile" B2 c2 | !>!e3 c B2 A2 | A2 d2 B2 c2 |!<(! ^G3 B!<)! A4 | %22
w: For- dom jag för|ro- sor brun- nit|i den ung- a|vå- rens dar.|
!f! A2 A2 e2 A2 | A3!<(! A A2!<)! _B2 | !>!_e4 !>!d4 | d4 (c2 d2) | e4 (a2 g2) | %27
w: Vå- ren läng- e|se'n för- svun- nit,|si- sta|ro- sen _|viss- nat _|
 (=f2!<(! e2) d2!<)! d2 |!f! d4 =f4 | =f4 (e2 f2) |!>(! g4 e4!>)! |!p! (e2 !fermata!d6) || %32
w: har, _ sis- ta|ro- sen|viss- nat _|viss- nat|har. _|
!p! d2 A2 d2 e2 | !>!c3 e d2 c2 | d2 A2 f2 e2 | e3 d c4 |!mf! d2 A2 B2 A2 | !>!A3 ^A B2 c2 | %38
w: Ast- rar bä- ren|stolt er kro- na!|Här ha mi- na|ro- sor stått,|och att sak- na'ns|kval för- so- na|
 B2!<(! !courtesy!=A2 A3 A!<)! |!>(! F2 ^G2!>)! A4 | z2!p! cc!<(! ccde | e2 d2!<)! d2 d2 | %42
w: ni har de- ras|plat- ser fått.|Sis- ta lär- kan av- sked|kvitt- rar och mot|
 =c2 G2 G2 (=FG) |"^cresc." A2 =c^c d2 ^d2 |!f! e4 e4 | A2 A2 A2 A2 | A3 c d3 B |!p! c8- | %48
w: sö- dern flyk- tar _|glad, ty hon märkt, att|rim- frost|glitt- rar mel- lan|blom- mans gran- na|blad.|
 c8-"^cresc." | c8 |!f! A2 d2 B2 c2 | e3 c B2 A2 | A2 d2 B2 c2 |!<(! ^G3 B!<)! A4 | %54
w: _||Mi- na vack- ra.|kal- la min- nen,|här- men ro- sor-|na på nytt.|
!f! A2 A2 e2 A2 | A3 A A2 _B2 |!f! _e4 d4 | _B4 G4 | G4 =F4 | !courtesy!=E4 e2 e2 | %60
w: Dun- kel- rö- da|kro- nor brin- nen!|vad gör|det, att|dof- ten|flytt, vad gör|
 d6 !courtesy!=B2 | B4 _B4 |!ff! A8- | !fermata!A8 |] %64
w: det att|dof- ten|flytt?|_|
V:4
!p! D,2 D,2 D,2 D,2 | !>!D,3 D, D,2 D,2 | D,2 D,2 D,2 E,2 | E,3 E, A,4 |!mf! D,2 D,2 D,2 C,2 | %5
w: Vack- ra ast- rar|pr- pur- rö- da,|vack- ra ast- rar,|dun- kel- blå,|ed- ra kro- nor,|
 !>!C,3 C, D,2 E,2 | D,2 B,,2 E,3 E, | E,2 E,2 A,,4 | z2!p! A,A, A,A,A,A, | A,2 A,2 G,2 =F,2 | %10
w: hur de glö- da,|dof- ten sak- na|de än- då.|Och, lik- väl, så snart det|hän- der, blom- mor,|
 E,2 D,2 =C,2 C,2 | =F,2"^cresc." F,F, F,2 F,2 |!f! E,4 D,4 | C,2 C,2 D,2 D,2 | E,2 E,2 E,2 E,2 | %15
w: att jag träf- far|er, är det som då|kä- ra|frän- der i ett|fjär- ran land jag|
!p! A,4 A,2 A,2 | !courtesy!=G,3 F,"^molto cresc." F,3 E, | E,8 |!f! D,2 D,2 D,2 D,2 | %19
w: ser, i ett|fjär- ran land jag|ser.|For- dom jag för|
 !>!D,3 D, D,2 D,2 | D,2 B,,2 ^G,,2 A,,2 |!<(! E,2 D,2!<)! C,4 |!f! D,2 (E,=F,) G,2 (F,E,) | %23
w: ro- sor brun- nit|i den ung- a|vå- rens dar.|Vå- ren _ läng- e _|
 =F,3!<(! F, ^F,2!<)! G,2 | !>!G,4 !>!^G,4 | (^G,A,) A,6 | A,4 A,4 | _B,8 |!f!!<(! _B,,4 B,,4!<)! | %29
w: se'n för- svun- nit,|si- sta|ro- * sen|viss- nat|har,|sis- ta|
 A,,4 A,,4 |!>(! A,4 A,4!>)! |!p! !fermata!D,8 ||!p! D,2 D,2 D,2 D,2 | !>!D,3 D, D,2 D,2 | %34
w: ro- sen|viss- nat|har.|Ast- rar bä- ren|stolt er kro- na!|
 D,2 D,2 D,2 E,2 | E,3 E, A,4 |!mf! D,2 D,2 D,2 C,2 | !>!C,3 C, D,2 E,2 | D,2!<(! B,,2 E,3!<)! E, | %39
w: Här ha mi- na|ro- sor stått,|och att sak- na'ns|kval för- so- na|ni har de- ras|
!>(! E,2 E,2!>)! A,,4 | z2!p! A,A,!<(! A,A,A,A, | A,2 A,2!<)! G,2 =F,2 | E,2 D,2 =C,2 C,2 | %43
w: plat- ser fått.|Sis- ta lär- kan av- sked|kvitt- rar och mot|sö- dern flyk- tar|
"^cresc." =F,2 F,F, F,2 F,2 |!f! E,4 D,4 | C,2 C,2 D,2 D,2 | E,2 E,2 E,2 E,2 |!p! A,4 A,2 A,2 | %48
w: glad, ty hon märkt, att|rim- frost|glitt- rar mel- lan|blom- mans gran- na|blad, mel- lan|
 !courtesy!=G,3 F,"^cresc." F,2 E,2 | E,8 |!f! D,2 D,2 D,2 D,2 | D,3 D, D,2 D,2 | %52
w: blom- mans gran- na|blad.|Mi- na vack- ra.|kal- la min- nen,|
 D,2 B,,2 ^G,,2 A,,2 |!<(! E,2 D,2!<)! C,4 |!f! D,2 (E,=F,) G,2 (F,E,) | =F,3 F, ^F,2 G,2 | %56
w: här- men ro- sor-|na på nytt.|Dun- kel- * rö- da _|kro- nor brin- nen!|
!f! G,4 _A,4 | G,4 =F,4 | !courtesy!=E,4 D,4 | !courtesy!^C,4 C2 C2 | (=C4 B,2) G,2 | D,4 D,4 | %62
w: vad gör|det, att|dof- ten|flytt, vad gör|det _ att|dof- ten|
!ff! D,8- | !fermata!D,8 |] %64
w: flytt?|_|

